X:19
T:score113
L:1/8
Q:1/4=96
M:3/4
I:linebreak $
K:C
 (C2 e3 d | f3) (e Bc | A2 d3 e | g3) (f ef |$ eB e^c dA) | (dB cE AB) | (GA Bc de | de) (A3 B |$ %8
 c2) z4 |] %9
